versioned_docs/version-3.X/reference/data-models/kubernetes/img/kubernetes_namespace.svg

<svg xmlns="http://www.w3.org/2000/svg" xmlns:xlink="http://www.w3.org/1999/xlink" width="414" height="1093" preserveAspectRatio="none" style="width:414px;height:1093px;background:#00000000"><a xlink:actuate="onRequest" xlink:href="#a" xlink:show="new" xlink:title="#region" xlink:type="simple" target="_top"><rect id="a" width="95" height="39.789" x="61" y="442" fill="#3D176E" rx="2.5" ry="2.5" style="stroke:#000d19;stroke-width:1.5"/><circle cx="76" cy="461.894" r="11" fill="#E98DF7" style="stroke:#000d19;stroke-width:1"/><path d="M78.969 467.535q-.578.297-1.219.438-.64.156-1.344.156-2.5 0-3.828-1.64-1.312-1.657-1.312-4.782t1.312-4.781q1.328-1.656 3.828-1.656.703 0 1.344.156.656.156 1.219.453v2.719q-.625-.579-1.219-.844-.594-.281-1.219-.281-1.344 0-2.031 1.078-.688 1.062-.688 3.156 0 2.094.688 3.172.688 1.062 2.031 1.062.625 0 1.219-.265.594-.281 1.219-.86v2.72Z"/><text x="95" y="467.78" fill="#D9B8FF" font-family="Helvetica" font-size="17" textLength="53">region</text></a><a xlink:actuate="onRequest" xlink:href="#b" xlink:show="new" xlink:title="#kubernetes_resource" xlink:type="simple" target="_top"><rect id="b" width="216" height="116.203" x="191.5" y="404" fill="#3D176E" rx="2.5" ry="2.5" style="stroke:#000d19;stroke-width:1.5"/><circle cx="206.5" cy="423.894" r="11" fill="#E98DF7" style="stroke:#000d19;stroke-width:1"/><path d="M209.469 429.535q-.578.297-1.219.438-.64.156-1.344.156-2.5 0-3.828-1.64-1.312-1.657-1.312-4.782t1.312-4.781q1.328-1.656 3.828-1.656.703 0 1.344.156.656.156 1.219.453v2.719q-.625-.579-1.219-.844-.594-.281-1.219-.281-1.344 0-2.031 1.078-.688 1.062-.688 3.156 0 2.094.688 3.172.688 1.062 2.031 1.062.625 0 1.219-.265.594-.281 1.219-.86v2.72Z"/><text x="225.5" y="429.78" fill="#D9B8FF" font-family="Helvetica" font-size="17" textLength="174">kubernetes_resource</text><path d="M192.5 443.789h214" style="stroke:#000d19;stroke-width:1.5"/><text x="202.5" y="463" fill="#D9B8FF" font-family="sans-serif" font-size="11" font-weight="bold" textLength="109">resource_version</text><text x="311.5" y="463" fill="#D9B8FF" font-family="sans-serif" font-size="11" textLength="41">: string</text><text x="202.5" y="485.804" fill="#D9B8FF" font-family="sans-serif" font-size="11" font-weight="bold" textLength="73">namespace</text><text x="275.5" y="485.804" fill="#D9B8FF" font-family="sans-serif" font-size="11" textLength="41">: string</text><text x="202.5" y="508.609" fill="#D9B8FF" font-family="sans-serif" font-size="11" font-weight="bold" textLength="39">labels</text><text x="241.5" y="508.609" fill="#D9B8FF" font-family="sans-serif" font-size="11" textLength="145">: dictionary[string, string]</text></a><a xlink:actuate="onRequest" xlink:href="#c" xlink:show="new" xlink:title="#resource" xlink:type="simple" target="_top"><rect id="c" width="195" height="275.836" x="106" y="7" fill="#3D176E" rx="2.5" ry="2.5" style="stroke:#000d19;stroke-width:1.5"/><circle cx="158.75" cy="26.895" r="11" fill="#E98DF7" style="stroke:#000d19;stroke-width:1"/><path d="M161.719 32.535q-.578.297-1.219.438-.64.156-1.344.156-2.5 0-3.828-1.64-1.312-1.657-1.312-4.782t1.312-4.781q1.328-1.656 3.828-1.656.703 0 1.344.156.656.156 1.219.453v2.719q-.625-.578-1.219-.844-.594-.281-1.219-.281-1.344 0-2.031 1.078-.688 1.062-.688 3.156 0 2.094.688 3.172.688 1.062 2.031 1.062.625 0 1.219-.265.594-.281 1.219-.86v2.72Z"/><text x="184.25" y="32.78" fill="#D9B8FF" font-family="Helvetica" font-size="17" textLength="71">resource</text><path d="M107 46.789h193" style="stroke:#000d19;stroke-width:1.5"/><text x="117" y="65.999" fill="#D9B8FF" font-family="sans-serif" font-size="11" font-weight="bold" textLength="12">id</text><text x="129" y="65.999" fill="#D9B8FF" font-family="sans-serif" font-size="11" textLength="41">: string</text><text x="117" y="88.804" fill="#D9B8FF" font-family="sans-serif" font-size="11" font-weight="bold" textLength="28">tags</text><text x="145" y="88.804" fill="#D9B8FF" font-family="sans-serif" font-size="11" textLength="145">: dictionary[string, string]</text><text x="117" y="111.609" fill="#D9B8FF" font-family="sans-serif" font-size="11" font-weight="bold" textLength="35">name</text><text x="152" y="111.609" fill="#D9B8FF" font-family="sans-serif" font-size="11" textLength="41">: string</text><text x="117" y="134.414" fill="#D9B8FF" font-family="sans-serif" font-size="11" font-weight="bold" textLength="35">ctime</text><text x="152" y="134.414" fill="#D9B8FF" font-family="sans-serif" font-size="11" textLength="58">: datetime</text><text x="117" y="157.218" fill="#D9B8FF" font-family="sans-serif" font-size="11" font-weight="bold" textLength="24">age</text><text x="141" y="157.218" fill="#D9B8FF" font-family="sans-serif" font-size="11" textLength="55">: duration</text><text x="117" y="180.023" fill="#D9B8FF" font-family="sans-serif" font-size="11" font-weight="bold" textLength="39">mtime</text><text x="156" y="180.023" fill="#D9B8FF" font-family="sans-serif" font-size="11" textLength="58">: datetime</text><text x="117" y="202.828" fill="#D9B8FF" font-family="sans-serif" font-size="11" font-weight="bold" textLength="75">last_update</text><text x="192" y="202.828" fill="#D9B8FF" font-family="sans-serif" font-size="11" textLength="55">: duration</text><text x="117" y="225.632" fill="#D9B8FF" font-family="sans-serif" font-size="11" font-weight="bold" textLength="36">atime</text><text x="153" y="225.632" fill="#D9B8FF" font-family="sans-serif" font-size="11" textLength="58">: datetime</text><text x="117" y="248.437" fill="#D9B8FF" font-family="sans-serif" font-size="11" font-weight="bold" textLength="74">last_access</text><text x="191" y="248.437" fill="#D9B8FF" font-family="sans-serif" font-size="11" textLength="55">: duration</text><text x="117" y="271.242" fill="#D9B8FF" font-family="sans-serif" font-size="11" font-weight="bold" textLength="27">kind</text><text x="144" y="271.242" fill="#D9B8FF" font-family="sans-serif" font-size="11" textLength="41">: string</text></a><a xlink:actuate="onRequest" xlink:href="#d" xlink:show="new" xlink:title="#kubernetes_namespace" xlink:type="simple" target="_top"><rect id="d" width="327" height="70.594" x="40" y="641" fill="#3D176E" rx="2.5" ry="2.5" style="stroke:#000d19;stroke-width:1.5"/><circle cx="95.75" cy="660.894" r="11" fill="#E98DF7" style="stroke:#000d19;stroke-width:1"/><path d="M98.719 666.535q-.578.297-1.219.438-.64.156-1.344.156-2.5 0-3.828-1.64-1.312-1.657-1.312-4.782t1.312-4.781q1.328-1.657 3.828-1.657.703 0 1.344.157.656.156 1.219.453v2.719q-.625-.578-1.219-.844-.594-.281-1.219-.281-1.344 0-2.031 1.078-.688 1.062-.688 3.156 0 2.094.688 3.172.688 1.062 2.031 1.062.625 0 1.219-.265.594-.282 1.219-.86v2.72Z"/><text x="121.25" y="666.78" fill="#D9B8FF" font-family="Helvetica" font-size="17" textLength="197">kubernetes_namespace</text><path d="M41 680.789h325" style="stroke:#000d19;stroke-width:1.5"/><text x="51" y="700" fill="#D9B8FF" font-family="sans-serif" font-size="11" font-weight="bold" textLength="119">namespace_status</text><text x="170" y="700" fill="#D9B8FF" font-family="sans-serif" font-size="11" textLength="186">: kubernetes_namespace_status</text></a><a xlink:actuate="onRequest" xlink:href="#e" xlink:show="new" xlink:title="#kubernetes_namespace_status" xlink:type="simple" target="_top"><rect id="e" width="347" height="93.398" x="30" y="772" fill="#3D176E" rx="2.5" ry="2.5" style="stroke:#000d19;stroke-width:1.5"/><circle cx="66.6" cy="791.894" r="11" fill="#E98DF7" style="stroke:#000d19;stroke-width:1"/><path d="M69.569 797.535q-.578.297-1.219.438-.64.156-1.344.156-2.5 0-3.828-1.64-1.312-1.657-1.312-4.782t1.312-4.781q1.328-1.657 3.828-1.657.703 0 1.344.157.656.156 1.219.453v2.719q-.625-.578-1.219-.844-.594-.281-1.219-.281-1.344 0-2.031 1.078-.688 1.062-.688 3.156 0 2.094.688 3.172.688 1.062 2.031 1.062.625 0 1.219-.265.594-.282 1.219-.86v2.72Z"/><text x="90.4" y="797.78" fill="#D9B8FF" font-family="Helvetica" font-size="17" textLength="257">kubernetes_namespace_status</text><path d="M31 811.789h345" style="stroke:#000d19;stroke-width:1.5"/><text x="41" y="831" fill="#D9B8FF" font-family="sans-serif" font-size="11" font-weight="bold" textLength="67">conditions</text><text x="108" y="831" fill="#D9B8FF" font-family="sans-serif" font-size="11" textLength="258">: kubernetes_namespace_status_conditions[]</text><text x="41" y="853.804" fill="#D9B8FF" font-family="sans-serif" font-size="11" font-weight="bold" textLength="39">phase</text><text x="80" y="853.804" fill="#D9B8FF" font-family="sans-serif" font-size="11" textLength="41">: string</text></a><a xlink:actuate="onRequest" xlink:href="#f" xlink:show="new" xlink:title="#kubernetes_namespace_status_conditions" xlink:type="simple" target="_top"><rect id="f" width="393" height="161.813" x="7" y="925" fill="#3D176E" rx="2.5" ry="2.5" style="stroke:#000d19;stroke-width:1.5"/><circle cx="22" cy="944.894" r="11" fill="#E98DF7" style="stroke:#000d19;stroke-width:1"/><path d="M24.969 950.535q-.578.297-1.219.438-.64.156-1.344.156-2.5 0-3.828-1.64-1.312-1.657-1.312-4.782t1.312-4.781q1.328-1.657 3.828-1.657.703 0 1.344.157.656.156 1.219.453v2.719q-.625-.578-1.219-.844-.594-.281-1.219-.281-1.343 0-2.031 1.078-.688 1.062-.688 3.156 0 2.094.688 3.172.688 1.062 2.031 1.062.625 0 1.219-.265.594-.282 1.219-.86v2.72Z"/><text x="41" y="950.78" fill="#D9B8FF" font-family="Helvetica" font-size="17" textLength="351">kubernetes_namespace_status_conditions</text><path d="M8 964.789h391" style="stroke:#000d19;stroke-width:1.5"/><text x="18" y="984" fill="#D9B8FF" font-family="sans-serif" font-size="11" font-weight="bold" textLength="126">last_transition_time</text><text x="144" y="984" fill="#D9B8FF" font-family="sans-serif" font-size="11" textLength="58">: datetime</text><text x="18" y="1006.804" fill="#D9B8FF" font-family="sans-serif" font-size="11" font-weight="bold" textLength="57">message</text><text x="75" y="1006.804" fill="#D9B8FF" font-family="sans-serif" font-size="11" textLength="41">: string</text><text x="18" y="1029.609" fill="#D9B8FF" font-family="sans-serif" font-size="11" font-weight="bold" textLength="44">reason</text><text x="62" y="1029.609" fill="#D9B8FF" font-family="sans-serif" font-size="11" textLength="41">: string</text><text x="18" y="1052.414" fill="#D9B8FF" font-family="sans-serif" font-size="11" font-weight="bold" textLength="40">status</text><text x="58" y="1052.414" fill="#D9B8FF" font-family="sans-serif" font-size="11" textLength="41">: string</text><text x="18" y="1075.218" fill="#D9B8FF" font-family="sans-serif" font-size="11" font-weight="bold" textLength="28">type</text><text x="46" y="1075.218" fill="#D9B8FF" font-family="sans-serif" font-size="11" textLength="41">: string</text></a><path fill="none" d="M156.32 302.44c-16.75 55.55-33.56 111.28-42.08 139.54m35.39-141.61 12.48-17.12.92 21.17-13.4-4.05zm101.56 2.12c11.07 36.33 22.17 72.73 30.93 101.47m-37.66-99.54.87-21.17 12.52 17.09-13.39 4.08zm20.94 234.06c-15.77 34.9-33.73 74.66-46.22 102.32m39.85-105.23 14.62-15.34-1.86 21.1-12.76-5.76zm-133.67-34.86C143.1 540.4 170.79 602.33 188 640.83m-69.13-137.48-1.77-21.12 14.55 15.4-12.78 5.72zm84.63 208.76v54.75" style="stroke:#ffaf37;stroke-width:2"/><path fill="#FFAF37" d="m203.5 771.93 4-9-4 4-4-4 4 9z" style="stroke:#ffaf37;stroke-width:2"/><path fill="none" d="M203.5 865.35v54.04" style="stroke:#ffaf37;stroke-width:2"/><path fill="#FFAF37" d="m203.5 924.64 4-9-4 4-4-4 4 9z" style="stroke:#ffaf37;stroke-width:2"/></svg>

<svg xmlns="http://www.w3.org/2000/svg" xmlns:xlink="http://www.w3.org/1999/xlink" width="414" height="1093" preserveAspectRatio="none" style="width:414px;height:1093px;background:#00000000"><a xlink:actuate="onRequest" xlink:href="#a" xlink:show="new" xlink:title="#region" xlink:type="simple" target="_top"><rect id="a" width="95" height="39.789" x="61" y="442" fill="#3D176E" rx="2.5" ry="2.5" style="stroke:#000d19;stroke-width:1.5"/><circle cx="76" cy="461.894" r="11" fill="#E98DF7" style="stroke:#000d19;stroke-width:1"/><path d="M78.969 467.535q-.578.297-1.219.438-.64.156-1.344.156-2.5 0-3.828-1.64-1.312-1.657-1.312-4.782t1.312-4.781q1.328-1.656 3.828-1.656.703 0 1.344.156.656.156 1.219.453v2.719q-.625-.579-1.219-.844-.594-.281-1.219-.281-1.344 0-2.031 1.078-.688 1.062-.688 3.156 0 2.094.688 3.172.688 1.062 2.031 1.062.625 0 1.219-.265.594-.281 1.219-.86v2.72Z"/><text x="95" y="467.78" fill="#D9B8FF" font-family="Helvetica" font-size="17" textLength="53">region</text></a><a xlink:actuate="onRequest" xlink:href="#b" xlink:show="new" xlink:title="#kubernetes_resource" xlink:type="simple" target="_top"><rect id="b" width="216" height="116.203" x="191.5" y="404" fill="#3D176E" rx="2.5" ry="2.5" style="stroke:#000d19;stroke-width:1.5"/><circle cx="206.5" cy="423.894" r="11" fill="#E98DF7" style="stroke:#000d19;stroke-width:1"/><path d="M209.469 429.535q-.578.297-1.219.438-.64.156-1.344.156-2.5 0-3.828-1.64-1.312-1.657-1.312-4.782t1.312-4.781q1.328-1.656 3.828-1.656.703 0 1.344.156.656.156 1.219.453v2.719q-.625-.579-1.219-.844-.594-.281-1.219-.281-1.344 0-2.031 1.078-.688 1.062-.688 3.156 0 2.094.688 3.172.688 1.062 2.031 1.062.625 0 1.219-.265.594-.281 1.219-.86v2.72Z"/><text x="225.5" y="429.78" fill="#D9B8FF" font-family="Helvetica" font-size="17" textLength="174">kubernetes_resource</text><path d="M192.5 443.789h214" style="stroke:#000d19;stroke-width:1.5"/><text x="202.5" y="463" fill="#D9B8FF" font-family="sans-serif" font-size="11" font-weight="bold" textLength="109">resource_version</text><text x="311.5" y="463" fill="#D9B8FF" font-family="sans-serif" font-size="11" textLength="41">: string</text><text x="202.5" y="485.804" fill="#D9B8FF" font-family="sans-serif" font-size="11" font-weight="bold" textLength="73">namespace</text><text x="275.5" y="485.804" fill="#D9B8FF" font-family="sans-serif" font-size="11" textLength="41">: string</text><text x="202.5" y="508.609" fill="#D9B8FF" font-family="sans-serif" font-size="11" font-weight="bold" textLength="39">labels</text><text x="241.5" y="508.609" fill="#D9B8FF" font-family="sans-serif" font-size="11" textLength="145">: dictionary[string, string]</text></a><a xlink:actuate="onRequest" xlink:href="#c" xlink:show="new" xlink:title="#resource" xlink:type="simple" target="_top"><rect id="c" width="195" height="275.836" x="106" y="7" fill="#3D176E" rx="2.5" ry="2.5" style="stroke:#000d19;stroke-width:1.5"/><circle cx="158.75" cy="26.895" r="11" fill="#E98DF7" style="stroke:#000d19;stroke-width:1"/><path d="M161.719 32.535q-.578.297-1.219.438-.64.156-1.344.156-2.5 0-3.828-1.64-1.312-1.657-1.312-4.782t1.312-4.781q1.328-1.656 3.828-1.656.703 0 1.344.156.656.156 1.219.453v2.719q-.625-.578-1.219-.844-.594-.281-1.219-.281-1.344 0-2.031 1.078-.688 1.062-.688 3.156 0 2.094.688 3.172.688 1.062 2.031 1.062.625 0 1.219-.265.594-.281 1.219-.86v2.72Z"/><text x="184.25" y="32.78" fill="#D9B8FF" font-family="Helvetica" font-size="17" textLength="71">resource</text><path d="M107 46.789h193" style="stroke:#000d19;stroke-width:1.5"/><text x="117" y="65.999" fill="#D9B8FF" font-family="sans-serif" font-size="11" font-weight="bold" textLength="12">id</text><text x="129" y="65.999" fill="#D9B8FF" font-family="sans-serif" font-size="11" textLength="41">: string</text><text x="117" y="88.804" fill="#D9B8FF" font-family="sans-serif" font-size="11" font-weight="bold" textLength="28">tags</text><text x="145" y="88.804" fill="#D9B8FF" font-family="sans-serif" font-size="11" textLength="145">: dictionary[string, string]</text><text x="117" y="111.609" fill="#D9B8FF" font-family="sans-serif" font-size="11" font-weight="bold" textLength="35">name</text><text x="152" y="111.609" fill="#D9B8FF" font-family="sans-serif" font-size="11" textLength="41">: string</text><text x="117" y="134.414" fill="#D9B8FF" font-family="sans-serif" font-size="11" font-weight="bold" textLength="35">ctime</text><text x="152" y="134.414" fill="#D9B8FF" font-family="sans-serif" font-size="11" textLength="58">: datetime</text><text x="117" y="157.218" fill="#D9B8FF" font-family="sans-serif" font-size="11" font-weight="bold" textLength="24">age</text><text x="141" y="157.218" fill="#D9B8FF" font-family="sans-serif" font-size="11" textLength="55">: duration</text><text x="117" y="180.023" fill="#D9B8FF" font-family="sans-serif" font-size="11" font-weight="bold" textLength="39">mtime</text><text x="156" y="180.023" fill="#D9B8FF" font-family="sans-serif" font-size="11" textLength="58">: datetime</text><text x="117" y="202.828" fill="#D9B8FF" font-family="sans-serif" font-size="11" font-weight="bold" textLength="75">last_update</text><text x="192" y="202.828" fill="#D9B8FF" font-family="sans-serif" font-size="11" textLength="55">: duration</text><text x="117" y="225.632" fill="#D9B8FF" font-family="sans-serif" font-size="11" font-weight="bold" textLength="36">atime</text><text x="153" y="225.632" fill="#D9B8FF" font-family="sans-serif" font-size="11" textLength="58">: datetime</text><text x="117" y="248.437" fill="#D9B8FF" font-family="sans-serif" font-size="11" font-weight="bold" textLength="74">last_access</text><text x="191" y="248.437" fill="#D9B8FF" font-family="sans-serif" font-size="11" textLength="55">: duration</text><text x="117" y="271.242" fill="#D9B8FF" font-family="sans-serif" font-size="11" font-weight="bold" textLength="27">kind</text><text x="144" y="271.242" fill="#D9B8FF" font-family="sans-serif" font-size="11" textLength="41">: string</text></a><a xlink:actuate="onRequest" xlink:href="#d" xlink:show="new" xlink:title="#kubernetes_namespace" xlink:type="simple" target="_top"><rect id="d" width="327" height="70.594" x="40" y="641" fill="#3D176E" rx="2.5" ry="2.5" style="stroke:#000d19;stroke-width:1.5"/><circle cx="95.75" cy="660.894" r="11" fill="#E98DF7" style="stroke:#000d19;stroke-width:1"/><path d="M98.719 666.535q-.578.297-1.219.438-.64.156-1.344.156-2.5 0-3.828-1.64-1.312-1.657-1.312-4.782t1.312-4.781q1.328-1.657 3.828-1.657.703 0 1.344.157.656.156 1.219.453v2.719q-.625-.578-1.219-.844-.594-.281-1.219-.281-1.344 0-2.031 1.078-.688 1.062-.688 3.156 0 2.094.688 3.172.688 1.062 2.031 1.062.625 0 1.219-.265.594-.282 1.219-.86v2.72Z"/><text x="121.25" y="666.78" fill="#D9B8FF" font-family="Helvetica" font-size="17" textLength="197">kubernetes_namespace</text><path d="M41 680.789h325" style="stroke:#000d19;stroke-width:1.5"/><text x="51" y="700" fill="#D9B8FF" font-family="sans-serif" font-size="11" font-weight="bold" textLength="119">namespace_status</text><text x="170" y="700" fill="#D9B8FF" font-family="sans-serif" font-size="11" textLength="186">: kubernetes_namespace_status</text></a><a xlink:actuate="onRequest" xlink:href="#e" xlink:show="new" xlink:title="#kubernetes_namespace_status" xlink:type="simple" target="_top"><rect id="e" width="347" height="93.398" x="30" y="772" fill="#3D176E" rx="2.5" ry="2.5" style="stroke:#000d19;stroke-width:1.5"/><circle cx="66.6" cy="791.894" r="11" fill="#E98DF7" style="stroke:#000d19;stroke-width:1"/><path d="M69.569 797.535q-.578.297-1.219.438-.64.156-1.344.156-2.5 0-3.828-1.64-1.312-1.657-1.312-4.782t1.312-4.781q1.328-1.657 3.828-1.657.703 0 1.344.157.656.156 1.219.453v2.719q-.625-.578-1.219-.844-.594-.281-1.219-.281-1.344 0-2.031 1.078-.688 1.062-.688 3.156 0 2.094.688 3.172.688 1.062 2.031 1.062.625 0 1.219-.265.594-.282 1.219-.86v2.72Z"/><text x="90.4" y="797.78" fill="#D9B8FF" font-family="Helvetica" font-size="17" textLength="257">kubernetes_namespace_status</text><path d="M31 811.789h345" style="stroke:#000d19;stroke-width:1.5"/><text x="41" y="831" fill="#D9B8FF" font-family="sans-serif" font-size="11" font-weight="bold" textLength="67">conditions</text><text x="108" y="831" fill="#D9B8FF" font-family="sans-serif" font-size="11" textLength="258">: kubernetes_namespace_status_conditions[]</text><text x="41" y="853.804" fill="#D9B8FF" font-family="sans-serif" font-size="11" font-weight="bold" textLength="39">phase</text><text x="80" y="853.804" fill="#D9B8FF" font-family="sans-serif" font-size="11" textLength="41">: string</text></a><a xlink:actuate="onRequest" xlink:href="#f" xlink:show="new" xlink:title="#kubernetes_namespace_status_conditions" xlink:type="simple" target="_top"><rect id="f" width="393" height="161.813" x="7" y="925" fill="#3D176E" rx="2.5" ry="2.5" style="stroke:#000d19;stroke-width:1.5"/><circle cx="22" cy="944.894" r="11" fill="#E98DF7" style="stroke:#000d19;stroke-width:1"/><path d="M24.969 950.535q-.578.297-1.219.438-.64.156-1.344.156-2.5 0-3.828-1.64-1.312-1.657-1.312-4.782t1.312-4.781q1.328-1.657 3.828-1.657.703 0 1.344.157.656.156 1.219.453v2.719q-.625-.578-1.219-.844-.594-.281-1.219-.281-1.343 0-2.031 1.078-.688 1.062-.688 3.156 0 2.094.688 3.172.688 1.062 2.031 1.062.625 0 1.219-.265.594-.282 1.219-.86v2.72Z"/><text x="41" y="950.78" fill="#D9B8FF" font-family="Helvetica" font-size="17" textLength="351">kubernetes_namespace_status_conditions</text><path d="M8 964.789h391" style="stroke:#000d19;stroke-width:1.5"/><text x="18" y="984" fill="#D9B8FF" font-family="sans-serif" font-size="11" font-weight="bold" textLength="126">last_transition_time</text><text x="144" y="984" fill="#D9B8FF" font-family="sans-serif" font-size="11" textLength="58">: datetime</text><text x="18" y="1006.804" fill="#D9B8FF" font-family="sans-serif" font-size="11" font-weight="bold" textLength="57">message</text><text x="75" y="1006.804" fill="#D9B8FF" font-family="sans-serif" font-size="11" textLength="41">: string</text><text x="18" y="1029.609" fill="#D9B8FF" font-family="sans-serif" font-size="11" font-weight="bold" textLength="44">reason</text><text x="62" y="1029.609" fill="#D9B8FF" font-family="sans-serif" font-size="11" textLength="41">: string</text><text x="18" y="1052.414" fill="#D9B8FF" font-family="sans-serif" font-size="11" font-weight="bold" textLength="40">status</text><text x="58" y="1052.414" fill="#D9B8FF" font-family="sans-serif" font-size="11" textLength="41">: string</text><text x="18" y="1075.218" fill="#D9B8FF" font-family="sans-serif" font-size="11" font-weight="bold" textLength="28">type</text><text x="46" y="1075.218" fill="#D9B8FF" font-family="sans-serif" font-size="11" textLength="41">: string</text></a><path fill="none" d="M156.32 302.44c-16.75 55.55-33.56 111.28-42.08 139.54M149.63 300.37l12.48-17.12.92 21.17-13.4-4.05zM251.19 302.49c11.07 36.33 22.17 72.73 30.93 101.47M244.46 304.42l.87-21.17 12.52 17.09-13.39 4.08zM265.4 538.48c-15.77 34.9-33.73 74.66-46.22 102.32M259.03 535.57l14.62-15.34-1.86 21.1-12.76-5.76zM125.36 500.71C143.1 540.4 170.79 602.33 188 640.83M118.87 503.35l-1.77-21.12 14.55 15.4-12.78 5.72zM203.5 712.11v54.75" style="stroke:#ffaf37;stroke-width:2"/><path fill="#FFAF37" d="m203.5 771.93 4-9-4 4-4-4 4 9z" style="stroke:#ffaf37;stroke-width:2"/><path fill="none" d="M203.5 865.35v54.04" style="stroke:#ffaf37;stroke-width:2"/><path fill="#FFAF37" d="m203.5 924.64 4-9-4 4-4-4 4 9z" style="stroke:#ffaf37;stroke-width:2"/></svg>
